; HEADER_BLOCK_START
; generated by OrcaSlicer 2.0.0 on 2024-05-22 at 12:15:13
; total layer number: 1
; filament_density: 1.24
; filament_diameter: 1.75
; max_z_height: 0.20
; HEADER_BLOCK_END

; external perimeters extrusion width = 0.45mm
; perimeters extrusion width = 0.45mm
; infill extrusion width = 0.45mm
; solid infill extrusion width = 0.45mm
; top infill extrusion width = 0.40mm
; first layer extrusion width = 0.42mm

; EXECUTABLE_BLOCK_START
M73 P0 R15
M201 X500 Y500 Z100 E5000
M203 X500 Y500 Z10 E60
M204 P500 R1000 T500
M205 X8.00 Y8.00 Z0.40 E5.00 ; sets the jerk limits, mm/sec
;TYPE:Custom
G90 ; use absolute coordinates
M83 ; extruder relative mode
M140 S60 ; set final bed temp
M104 S150 ; set temporary nozzle temp to prevent oozing during homing
G4 S10 ; allow partial nozzle warmup
G28 ; home all axis
G1 Z50 F240
G1 X2 Y10 F3000
M104 S220 ; set final nozzle temp
M190 S60 ; wait for bed temp to stabilize
M109 S220 ; wait for nozzle temp to stabilize
M73 P1 R15
G1 Z0.28 F240
G92 E0
G1 Y140 E10 F1500 ; prime the nozzle
M73 P2 R15
G1 X2.3 F5000
G92 E0
M73 P3 R15
G1 Y10 E10 F1200 ; prime the nozzle
G92 E0
G90
G21
M83 ; use relative distances for extrusion
; filament start gcode
M106 S0
;LAYER_CHANGE
;Z:0.2
;HEIGHT:0.2
;BEFORE_LAYER_CHANGE
;0.2
G92 E0

G1 E-4 F3600
;_SET_FAN_SPEED_CHANGING_LAYER
; printing object FirstLevelTest.STL id:870784128004013012 copy 0
G1 Z.4 F9000
G1 X3.733 Y151.763
G1 Z.4
M73 P4 R15
G1 Z.2
G1 E4 F2400
;TYPE:Inner wall
;WIDTH:0.419999
G1 F900
G1 X3.587 Y151.442 E.01085
G1 X3.514 Y150.975 E.01451
G1 X3.514 Y6.02 E4.45407
G1 X3.526 Y5.411 E.01869
M73 P5 R15
G1 X3.618 Y5.005 E.0128
G1 X3.786 Y4.646 E.01219
G1 X4.097 Y4.292 E.01448
G1 X4.479 Y4.074 E.01353
G1 X4.946 Y3.95 E.01485
G1 X5.579 Y3.942 E.01944
G1 X150.486 Y3.943 E4.45259
G1 X150.901 Y3.979 E.0128
M73 P6 R14
G1 X151.318 Y4.14 E.01371
G1 X151.68 Y4.402 E.01374
G1 X151.942 Y4.765 E.01374
G1 X152.103 Y5.181 E.01371
G1 X152.14 Y5.596 E.0128
G1 X152.14 Y151.074 E4.47013
G1 X152.024 Y151.587 E.01617
M73 P7 R14
G1 X151.776 Y151.993 E.01461
G1 X151.425 Y152.315 E.01464
G1 X151.022 Y152.493 E.01354
G1 X150.547 Y152.568 E.01477
G1 X5.008 Y152.568 E4.47198
G1 X4.495 Y152.452 E.01617
M73 P8 R14
G1 X4.086 Y152.2 E.01477
G1 X3.785 Y151.88 E.01351
G1 X3.749 Y151.8 E.00269
G1 X3.381 Y151.923 F9000
;TYPE:Outer wall
G1 F900
G1 X3.225 Y151.549 E.01245
G1 X3.137 Y150.993 E.01729
G1 X3.137 Y6.02 E4.45462
G1 X3.173 Y5.14 E.02706
M73 P9 R14
G1 X3.352 Y4.622 E.01684
G1 X3.47 Y4.44 E.00665
G1 X3.726 Y4.129 E.01238
G1 X4.166 Y3.794 E.01701
G1 X4.543 Y3.641 E.01248
G1 X4.909 Y3.573 E.01146
G1 X5.577 Y3.565 E.0205
G1 X150.486 Y3.566 E4.45266
G1 X150.98 Y3.609 E.01523
M73 P10 R14
G1 X151.497 Y3.809 E.01704
G1 X151.948 Y4.134 E.01708
G1 X152.274 Y4.585 E.01708
G1 X152.474 Y5.102 E.01704
G1 X152.517 Y5.596 E.01523
G1 X152.517 Y150.993 E4.46764
G1 X152.429 Y151.549 E.01729
M73 P11 R14
G1 X152.271 Y151.926 E.01256
G1 X151.949 Y152.376 E.01701
G1 X151.632 Y152.632 E.01251
G1 X151.123 Y152.856 E.0171
G1 X150.565 Y152.945 E.01737
G1 X4.973 Y152.945 E4.47363
G1 X4.352 Y152.803 E.01958
M73 P12 R13
G1 X3.992 Y152.612 E.01251
G1 X3.591 Y152.237 E.01689
G1 X3.403 Y151.956 E.01037
G1 E-2.8 F3600
;WIPE_START
G1 F900
G1 X3.225 Y151.549 E-.53346
G1 X3.138 Y151 E-.66654
;WIPE_END
G1 Z.6 F9000
G1 X142.248 Y72.829 Z.6
G1 Z.2
G1 E4 F2400
;TYPE:Inner wall
G1 F900
G1 X142.214 Y72.983 E.00486
G1 X142.038 Y73.204 E.00869
G1 X141.758 Y73.317 E.00928
G1 X83.331 Y73.317 E1.7953
G1 X83.078 Y73.258 E.00799
G1 X82.878 Y73.091 E.00799
G1 X82.765 Y72.811 E.00928
G1 X82.765 Y14.384 E1.7953
G1 X82.825 Y14.131 E.00799
M73 P13 R13
G1 X82.972 Y13.946 E.00726
G1 X83.251 Y13.818 E.00944
G1 X141.699 Y13.818 E1.79591
G1 X141.923 Y13.865 E.00705
G1 X142.144 Y14.035 E.00856
G1 X142.264 Y14.319 E.00947
G1 X142.264 Y72.752 E1.79548
G1 X142.256 Y72.79 E.0012
M73 P14 R13
G1 X141.887 Y72.752 F9000
;TYPE:Outer wall
G1 F900
G1 X141.829 Y72.888 E.00456
G1 X141.699 Y72.94 E.0043
G1 X83.331 Y72.94 E1.79348
G1 X83.189 Y72.876 E.00479
G1 X83.142 Y72.752 E.00408
G1 X83.142 Y14.384 E1.79348
G1 X83.211 Y14.238 E.00496
M73 P15 R13
G1 X83.331 Y14.195 E.0039
G1 X141.699 Y14.195 E1.79348
G1 X141.832 Y14.25 E.00443
G1 X141.887 Y14.384 E.00443
G1 X141.887 Y72.712 E1.79225
G1 E-2.8 F3600
;WIPE_START
G1 F900
G1 X141.829 Y72.888 E-.22317
G1 X141.699 Y72.94 E-.16805
G1 X141.025 Y72.94 E-.80878
;WIPE_END
G1 Z.6 F9000
G1 X82.785 Y83.674 Z.6
G1 Z.2
G1 E4 F2400
;TYPE:Inner wall
G1 F900
G1 X82.825 Y83.506 E.00532
G1 X82.991 Y83.306 E.00799
G1 X83.271 Y83.193 E.00928
G1 X141.699 Y83.193 E1.7953
G1 X141.951 Y83.253 E.00799
M73 P16 R13
G1 X142.136 Y83.4 E.00726
G1 X142.264 Y83.68 E.00944
G1 X142.264 Y142.127 E1.79591
G1 X142.218 Y142.351 E.00705
G1 X142.047 Y142.572 E.00856
G1 X141.764 Y142.692 E.00947
G1 X83.331 Y142.692 E1.79548
G1 X83.099 Y142.643 E.00728
M73 P17 R13
G1 X82.878 Y142.466 E.00869
G1 X82.765 Y142.21 E.00861
G1 X82.765 Y83.759 E1.79603
G1 X82.776 Y83.713 E.00143
G1 X83.142 Y83.759 F9000
;TYPE:Outer wall
G1 F900
G1 X83.206 Y83.617 E.00479
G1 X83.331 Y83.57 E.00408
G1 X141.699 Y83.57 E1.79348
G1 X141.844 Y83.639 E.00496
M73 P18 R13
G1 X141.887 Y83.759 E.0039
G1 X141.887 Y142.127 E1.79348
G1 X141.832 Y142.26 E.00443
M73 P18 R12
G1 X141.699 Y142.315 E.00443
G1 X83.331 Y142.315 E1.79348
G1 X83.194 Y142.257 E.00456
G1 X83.142 Y142.154 E.00353
G1 X83.142 Y83.799 E1.7931
G1 E-2.8 F3600
;WIPE_START
M73 P19 R12
G1 F900
G1 X83.206 Y83.617 E-.23154
G1 X83.331 Y83.57 E-.15915
G1 X84.005 Y83.57 E-.80931
;WIPE_END
G1 Z.6 F9000
G1 X72.48 Y142.657 Z.6
G1 Z.2
G1 E4 F2400
;TYPE:Inner wall
G1 F900
G1 X72.403 Y142.692 E.00262
G1 X13.956 Y142.692 E1.79591
G1 X13.731 Y142.646 E.00705
G1 X13.51 Y142.476 E.00856
G1 X13.39 Y142.192 E.00947
G1 X13.39 Y83.759 E1.79548
G1 X13.44 Y83.527 E.00728
M73 P20 R12
G1 X13.616 Y83.306 E.00869
G1 X13.956 Y83.193 E.01099
G1 X72.324 Y83.193 E1.79348
G1 X72.576 Y83.253 E.00799
G1 X72.776 Y83.419 E.00799
G1 X72.889 Y83.699 E.00928
G1 X72.889 Y142.127 E1.7953
G1 X72.829 Y142.38 E.00799
M73 P21 R12
G1 X72.682 Y142.564 E.00726
G1 X72.516 Y142.64 E.00559
G1 X72.324 Y142.315 F9000
;TYPE:Outer wall
G1 F900
G1 X13.956 Y142.315 E1.79348
G1 X13.822 Y142.26 E.00443
G1 X13.767 Y142.127 E.00443
G1 X13.767 Y83.759 E1.79348
G1 X13.826 Y83.622 E.00456
G1 X13.907 Y83.57 E.00296
G1 X72.324 Y83.57 E1.79498
G1 X72.465 Y83.635 E.00479
M73 P22 R12
G1 X72.512 Y83.759 E.00408
G1 X72.512 Y142.127 E1.79348
G1 X72.443 Y142.273 E.00496
G1 X72.361 Y142.302 E.00267
G1 E-2.8 F3600
;WIPE_START
G1 F900
G1 X71.361 Y142.302 E-1.2
;WIPE_END
G1 Z.6 F9000
G1 X13.405 Y14.309 Z.6
G1 Z.2
G1 E4 F2400
;TYPE:Inner wall
G1 F900
G1 X13.436 Y14.159 E.0047
G1 X13.607 Y13.939 E.00856
G1 X13.891 Y13.818 E.00947
G1 X72.324 Y13.818 E1.79548
G1 X72.555 Y13.868 E.00728
M73 P23 R12
G1 X72.776 Y14.044 E.00869
G1 X72.889 Y14.324 E.00928
G1 X72.889 Y72.752 E1.7953
G1 X72.829 Y73.005 E.00799
G1 X72.663 Y73.204 E.00799
G1 X72.383 Y73.317 E.00928
G1 X13.956 Y73.317 E1.7953
G1 X13.703 Y73.258 E.00799
M73 P24 R12
G1 X13.566 Y73.161 E.00515
G1 X13.39 Y72.873 E.01037
G1 X13.39 Y14.384 E1.7972
G1 X13.397 Y14.348 E.00112
M73 P24 R11
G1 X13.767 Y14.384 F9000
;TYPE:Outer wall
G1 F900
G1 X13.822 Y14.25 E.00443
G1 X13.956 Y14.195 E.00443
G1 X72.324 Y14.195 E1.79348
G1 X72.46 Y14.254 E.00456
G1 X72.512 Y14.384 E.0043
G1 X72.512 Y72.752 E1.79348
G1 X72.448 Y72.894 E.00479
M73 P25 R11
G1 X72.324 Y72.94 E.00408
G1 X13.956 Y72.94 E1.79348
G1 X13.826 Y72.888 E.0043
G1 X13.767 Y72.752 E.00456
G1 X13.767 Y14.424 E1.79225
G1 E-2.8 F3600
;WIPE_START
M73 P26 R11
G1 F900
G1 X13.822 Y14.25 E-.21828
G1 X13.956 Y14.195 E-.17316
G1 X14.629 Y14.195 E-.80856
;WIPE_END
G1 Z.6 F9000
G1 X150.399 Y4.056
G1 Z.6
G1 Z.2
G1 E4 F2400
;TYPE:Bottom surface
;WIDTH:0.420314
G1 F2100
G1 X151.856 Y5.512 E.06336
G1 X151.857 Y6.047 E.01643
G1 X150.035 Y4.225 E.07922
G1 X149.502 Y4.225 E.01641
G1 X151.857 Y6.581 E.10243
G1 X151.857 Y7.114 E.01641
G1 X148.968 Y4.225 E.12564
G1 X148.434 Y4.225 E.01641
G1 X151.857 Y7.648 E.14885
G1 X151.857 Y8.182 E.01641
G1 X147.901 Y4.225 E.17206
G1 X147.367 Y4.225 E.01641
G1 X151.857 Y8.715 E.19528
G1 X151.857 Y9.249 E.01641
G1 X146.833 Y4.225 E.21849
G1 X146.299 Y4.225 E.01641
G1 X151.857 Y9.783 E.2417
G1 X151.857 Y10.317 E.01641
G1 X145.766 Y4.225 E.26491
G1 X145.232 Y4.225 E.01641
G1 X151.857 Y10.85 E.28812
G1 X151.857 Y11.384 E.01641
G1 X144.698 Y4.225 E.31134
G1 X144.164 Y4.225 E.01641
G1 X151.857 Y11.918 E.33455
G1 X151.857 Y12.451 E.01641
G1 X143.631 Y4.225 E.35776
G1 X143.097 Y4.225 E.01641
G1 X151.857 Y12.985 E.38097
G1 X151.857 Y13.519 E.01641
G1 X142.563 Y4.225 E.40418
G1 X142.03 Y4.225 E.01641
G1 X151.857 Y14.053 E.4274
G1 X151.857 Y14.586 E.01641
G1 X141.496 Y4.225 E.45061
G1 X140.962 Y4.225 E.01641
G1 X151.857 Y15.12 E.47382
G1 X151.857 Y15.654 E.01641
M73 P27 R11
G1 X140.428 Y4.225 E.49703
G1 X139.895 Y4.225 E.01641
G1 X151.857 Y16.187 E.52024
G1 X151.857 Y16.721 E.01641
G1 X139.361 Y4.225 E.54346
G1 X138.827 Y4.225 E.01641
G1 X151.857 Y17.255 E.56667
G1 X151.857 Y17.789 E.01641
G1 X138.294 Y4.225 E.58988
G1 X137.76 Y4.225 E.01641
G1 X151.857 Y18.322 E.61309
G1 X151.857 Y18.856 E.01641
G1 X137.226 Y4.225 E.6363
G1 X136.692 Y4.225 E.01641
G1 X151.857 Y19.39 E.65952
G1 X151.857 Y19.924 E.01641
G1 X136.159 Y4.225 E.68273
G1 X135.625 Y4.225 E.01641
G1 X151.857 Y20.457 E.70594
G1 X151.857 Y20.991 E.01641
G1 X135.091 Y4.225 E.72915
G1 X134.558 Y4.225 E.01641
G1 X151.857 Y21.525 E.75236
G1 X151.857 Y22.058 E.01641
G1 X134.024 Y4.225 E.77558
G1 X133.49 Y4.225 E.01641
G1 X151.857 Y22.592 E.79879
G1 X151.857 Y23.126 E.01641
M73 P28 R11
G1 X132.956 Y4.225 E.822
G1 X132.423 Y4.225 E.01641
G1 X141.736 Y13.538 E.40502
G1 X141.847 Y13.548 E.00343
G1 X142.033 Y13.604 E.006
G1 X142.136 Y13.657 E.00356
G1 X142.299 Y13.783 E.00634
G1 X142.426 Y13.946 E.00634
G1 X142.478 Y14.049 E.00356
G1 X142.534 Y14.236 E.00599
G1 X142.544 Y14.347 E.00343
G1 X151.857 Y23.66 E.40502
G1 X151.857 Y24.193 E.01641
G1 X142.547 Y14.883 E.4049
G1 X142.547 Y15.417 E.01641
G1 X151.857 Y24.727 E.4049
G1 X151.857 Y25.261 E.01641
G1 X142.547 Y15.951 E.4049
G1 X142.547 Y16.484 E.01641
G1 X151.857 Y25.794 E.4049
G1 X151.857 Y26.328 E.01641
G1 X142.547 Y17.018 E.4049
G1 X142.547 Y17.552 E.01641
G1 X151.857 Y26.862 E.4049
G1 X151.857 Y27.396 E.01641
G1 X142.547 Y18.086 E.4049
G1 X142.547 Y18.619 E.01641
G1 X151.857 Y27.929 E.4049
G1 X151.857 Y28.463 E.01641
G1 X142.547 Y19.153 E.4049
G1 X142.547 Y19.687 E.01641
G1 X151.857 Y28.997 E.4049
G1 X151.857 Y29.53 E.01641
G1 X142.547 Y20.22 E.4049
G1 X142.547 Y20.754 E.01641
G1 X151.857 Y30.064 E.4049
G1 X151.857 Y30.598 E.01641
G1 X142.547 Y21.288 E.4049
G1 X142.547 Y21.822 E.01641
G1 X151.857 Y31.132 E.4049
G1 X151.857 Y31.665 E.01641
G1 X142.547 Y22.355 E.4049
G1 X142.547 Y22.889 E.01641
G1 X151.857 Y32.199 E.4049
G1 X151.857 Y32.733 E.01641
G1 X142.547 Y23.423 E.4049
G1 X142.547 Y23.956 E.01641
M73 P29 R11
G1 X151.857 Y33.266 E.4049
G1 X151.857 Y33.8 E.01641
G1 X142.547 Y24.49 E.4049
G1 X142.547 Y25.024 E.01641
G1 X151.857 Y34.334 E.4049
G1 X151.857 Y34.868 E.01641
G1 X142.547 Y25.558 E.4049
G1 X142.547 Y26.091 E.01641
G1 X151.857 Y35.401 E.4049
G1 X151.857 Y35.935 E.01641
G1 X142.547 Y26.625 E.4049
G1 X142.547 Y27.159 E.01641
G1 X151.857 Y36.469 E.4049
G1 X151.857 Y37.002 E.01641
G1 X142.547 Y27.692 E.4049
G1 X142.547 Y28.226 E.01641
G1 X151.857 Y37.536 E.4049
G1 X151.857 Y38.07 E.01641
G1 X142.547 Y28.76 E.4049
G1 X142.547 Y29.294 E.01641
G1 X151.857 Y38.604 E.4049
G1 X151.857 Y39.137 E.01641
G1 X142.547 Y29.827 E.4049
G1 X142.547 Y30.361 E.01641
G1 X151.857 Y39.671 E.4049
G1 X151.857 Y40.205 E.01641
G1 X142.547 Y30.895 E.4049
G1 X142.547 Y31.428 E.01641
G1 X151.857 Y40.738 E.4049
G1 X151.857 Y41.272 E.01641
G1 X142.547 Y31.962 E.4049
G1 X142.547 Y32.496 E.01641
G1 X151.857 Y41.806 E.4049
G1 X151.857 Y42.34 E.01641
G1 X142.547 Y33.03 E.4049
G1 X142.547 Y33.563 E.01641
G1 X151.857 Y42.873 E.4049
G1 X151.857 Y43.407 E.01641
G1 X142.547 Y34.097 E.4049
G1 X142.547 Y34.631 E.01641
G1 X151.857 Y43.941 E.4049
G1 X151.857 Y44.474 E.01641
M73 P30 R11
G1 X142.547 Y35.165 E.4049
G1 X142.547 Y35.698 E.01641
G1 X151.857 Y45.008 E.4049
G1 X151.857 Y45.542 E.01641
G1 X142.547 Y36.232 E.4049
G1 X142.547 Y36.766 E.01641
G1 X151.857 Y46.076 E.4049
G1 X151.857 Y46.609 E.01641
G1 X142.547 Y37.299 E.4049
G1 X142.547 Y37.833 E.01641
G1 X151.857 Y47.143 E.4049
G1 X151.857 Y47.677 E.01641
G1 X142.547 Y38.367 E.4049
G1 X142.547 Y38.901 E.01641
G1 X151.857 Y48.211 E.4049
G1 X151.857 Y48.744 E.01641
G1 X142.547 Y39.434 E.4049
G1 X142.547 Y39.968 E.01641
G1 X151.857 Y49.278 E.4049
G1 X151.857 Y49.812 E.01641
G1 X142.547 Y40.502 E.4049
G1 X142.547 Y41.035 E.01641
G1 X151.857 Y50.345 E.4049
G1 X151.857 Y50.879 E.01641
G1 X142.547 Y41.569 E.4049
G1 X142.547 Y42.103 E.01641
G1 X151.857 Y51.413 E.4049
G1 X151.857 Y51.947 E.01641
G1 X142.547 Y42.637 E.4049
G1 X142.547 Y43.17 E.01641
G1 X151.857 Y52.48 E.4049
G1 X151.857 Y53.014 E.01641
M73 P30 R10
G1 X142.547 Y43.704 E.4049
G1 X142.547 Y44.238 E.01641
G1 X151.857 Y53.548 E.4049
G1 X151.857 Y54.081 E.01641
G1 X142.547 Y44.771 E.4049
G1 X142.547 Y45.305 E.01641
G1 X151.857 Y54.615 E.4049
G1 X151.857 Y55.149 E.01641
G1 X142.547 Y45.839 E.4049
G1 X142.547 Y46.373 E.01641
M73 P31 R10
G1 X151.857 Y55.683 E.4049
G1 X151.857 Y56.216 E.01641
G1 X142.547 Y46.906 E.4049
G1 X142.547 Y47.44 E.01641
G1 X151.857 Y56.75 E.4049
G1 X151.857 Y57.284 E.01641
G1 X142.547 Y47.974 E.4049
G1 X142.547 Y48.507 E.01641
G1 X151.857 Y57.817 E.4049
G1 X151.857 Y58.351 E.01641
G1 X142.547 Y49.041 E.4049
G1 X142.547 Y49.575 E.01641
G1 X151.857 Y58.885 E.4049
G1 X151.857 Y59.419 E.01641
G1 X142.547 Y50.109 E.4049
G1 X142.547 Y50.642 E.01641
G1 X151.857 Y59.952 E.4049
G1 X151.857 Y60.486 E.01641
G1 X142.547 Y51.176 E.4049
G1 X142.547 Y51.71 E.01641
G1 X151.857 Y61.02 E.4049
G1 X151.857 Y61.553 E.01641
G1 X142.547 Y52.243 E.4049
G1 X142.547 Y52.777 E.01641
G1 X151.857 Y62.087 E.4049
G1 X151.857 Y62.621 E.01641
G1 X142.547 Y53.311 E.4049
G1 X142.547 Y53.845 E.01641
G1 X151.857 Y63.155 E.4049
G1 X151.857 Y63.688 E.01641
G1 X142.547 Y54.378 E.4049
G1 X142.547 Y54.912 E.01641
G1 X151.857 Y64.222 E.4049
G1 X151.857 Y64.756 E.01641
G1 X142.547 Y55.446 E.4049
G1 X142.547 Y55.979 E.01641
G1 X151.857 Y65.289 E.4049
G1 X151.857 Y65.823 E.01641
G1 X142.547 Y56.513 E.4049
G1 X142.547 Y57.047 E.01641
G1 X151.857 Y66.357 E.4049
G1 X151.857 Y66.891 E.01641
M73 P32 R10
G1 X142.547 Y57.581 E.4049
G1 X142.547 Y58.114 E.01641
G1 X151.857 Y67.424 E.4049
G1 X151.857 Y67.958 E.01641
G1 X142.547 Y58.648 E.4049
G1 X142.547 Y59.182 E.01641
G1 X151.857 Y68.492 E.4049
G1 X151.857 Y69.025 E.01641
G1 X142.547 Y59.715 E.4049
G1 X142.547 Y60.249 E.01641
G1 X151.857 Y69.559 E.4049
G1 X151.857 Y70.093 E.01641
G1 X142.547 Y60.783 E.4049
G1 X142.547 Y61.317 E.01641
G1 X151.857 Y70.627 E.4049
G1 X151.857 Y71.16 E.01641
G1 X142.547 Y61.85 E.4049
G1 X142.547 Y62.384 E.01641
G1 X151.857 Y71.694 E.4049
G1 X151.857 Y72.228 E.01641
G1 X142.547 Y62.918 E.4049
G1 X142.547 Y63.451 E.01641
G1 X151.857 Y72.761 E.4049
G1 X151.857 Y73.295 E.01641
G1 X142.547 Y63.985 E.4049
G1 X142.547 Y64.519 E.01641
G1 X151.857 Y73.829 E.4049
G1 X151.857 Y74.363 E.01641
G1 X142.547 Y65.053 E.4049
G1 X142.547 Y65.586 E.01641
G1 X151.857 Y74.896 E.4049
G1 X151.857 Y75.43 E.01641
G1 X142.547 Y66.12 E.4049
G1 X142.547 Y66.654 E.01641
G1 X151.857 Y75.964 E.4049
G1 X151.857 Y76.498 E.01641
G1 X142.547 Y67.187 E.4049
G1 X142.547 Y67.721 E.01641
G1 X151.857 Y77.031 E.4049
G1 X151.857 Y77.565 E.01641
G1 X142.547 Y68.255 E.4049
G1 X142.547 Y68.789 E.01641
G1 X151.857 Y78.099 E.4049
M73 P33 R10
G1 X151.857 Y78.632 E.01641
G1 X142.547 Y69.322 E.4049
G1 X142.547 Y69.856 E.01641
G1 X151.857 Y79.166 E.4049
G1 X151.857 Y79.7 E.01641
G1 X142.547 Y70.39 E.4049
G1 X142.547 Y70.923 E.01641
G1 X151.857 Y80.234 E.4049
G1 X151.857 Y80.767 E.01641
G1 X142.547 Y71.457 E.4049
G1 X142.547 Y71.991 E.01641
G1 X151.857 Y81.301 E.4049
G1 X151.857 Y81.835 E.01641
G1 X142.547 Y72.525 E.4049
G1 X142.534 Y72.9 E.01155
G1 X142.5 Y73.012 E.00359
