; HEADER_BLOCK_START
; generated by OrcaSlicer 2.0.0 on 2024-05-22 at 12:13:41
; total layer number: 1
; filament_density: 1.24
; filament_diameter: 1.75
; max_z_height: 0.20
; HEADER_BLOCK_END

; external perimeters extrusion width = 0.45mm
; perimeters extrusion width = 0.45mm
; infill extrusion width = 0.45mm
; solid infill extrusion width = 0.45mm
; top infill extrusion width = 0.40mm
; first layer extrusion width = 0.42mm

; EXECUTABLE_BLOCK_START
M73 P0 R25
M201 X500 Y500 Z100 E5000
M203 X500 Y500 Z10 E60
M204 P500 R1000 T500
M205 X8.00 Y8.00 Z0.40 E5.00 ; sets the jerk limits, mm/sec
;TYPE:Custom
G90 ; use absolute coordinates
M83 ; extruder relative mode
M140 S60 ; set final bed temp
M104 S150 ; set temporary nozzle temp to prevent oozing during homing
G4 S10 ; allow partial nozzle warmup
G28 ; home all axis
G1 Z50 F240
G1 X2 Y10 F3000
M104 S220 ; set final nozzle temp
M190 S60 ; wait for bed temp to stabilize
M109 S220 ; wait for nozzle temp to stabilize
G1 Z0.28 F240
G92 E0
G1 Y140 E10 F1500 ; prime the nozzle
M73 P1 R25
G1 X2.3 F5000
G92 E0
G1 Y10 E10 F1200 ; prime the nozzle
G92 E0
G90
G21
M83 ; use relative distances for extrusion
; filament start gcode
M106 S0
;LAYER_CHANGE
;Z:0.2
;HEIGHT:0.2
;BEFORE_LAYER_CHANGE
;0.2
G92 E0

G1 E-4 F3600
;_SET_FAN_SPEED_CHANGING_LAYER
; printing object FirstLevelTest.STL id:13728412815861488852 copy 0
M73 P2 R25
G1 Z.4 F9000
G1 X4.857 Y7.244
G1 Z.4
G1 Z.2
G1 E4 F2400
;TYPE:Inner wall
;WIDTH:0.419999
G1 F900
G1 X5.101 Y6.839 E.01454
G1 X5.501 Y6.425 E.01768
G1 X5.861 Y6.186 E.01329
G1 X6.316 Y6.002 E.01507
G1 X6.707 Y5.926 E.01223
G1 X7.453 Y5.911 E.02293
G1 X200.828 Y5.912 E5.94186
G1 X201.428 Y5.965 E.01853
M73 P3 R24
G1 X201.851 Y6.098 E.01361
G1 X202.24 Y6.309 E.01361
G1 X202.582 Y6.591 E.01361
G1 X202.863 Y6.932 E.01361
G1 X203.075 Y7.322 E.01361
G1 X203.208 Y7.744 E.01361
G1 X203.261 Y8.345 E.01853
G1 X203.261 Y202.077 E5.95286
G1 X203.216 Y202.665 E.01811
M73 P4 R24
G1 X203.091 Y203.087 E.01353
G1 X202.861 Y203.518 E.01501
G1 X202.581 Y203.858 E.01353
G1 X202.24 Y204.14 E.01359
G1 X201.853 Y204.35 E.01352
G1 X201.386 Y204.492 E.01502
G1 X200.919 Y204.537 E.01441
G1 X7.095 Y204.537 E5.95567
G1 X6.508 Y204.492 E.0181
G1 X6.083 Y204.366 E.01362
G1 X5.692 Y204.163 E.01351
G1 X5.315 Y203.858 E.01493
G1 X5.009 Y203.48 E.01493
G1 X4.806 Y203.09 E.01351
G1 X4.68 Y202.665 E.01362
G1 X4.635 Y202.195 E.01449
G1 X4.635 Y8.371 E5.95568
G1 X4.679 Y7.791 E.01785
M73 P5 R24
G1 X4.845 Y7.282 E.01645
G1 X4.512 Y7.087 F9000
;TYPE:Outer wall
G1 F900
G1 X4.8 Y6.608 E.01718
G1 X5.258 Y6.133 E.02027
G1 X5.685 Y5.85 E.01573
G1 X6.208 Y5.639 E.01735
G1 X6.667 Y5.55 E.01434
G1 X7.449 Y5.534 E.02404
G1 X200.987 Y5.535 E5.94688
G1 X201.507 Y5.594 E.01608
M73 P6 R24
G1 X201.999 Y5.749 E.01584
G1 X202.452 Y5.995 E.01584
G1 X202.849 Y6.323 E.01584
G1 X203.177 Y6.72 E.01584
G1 X203.423 Y7.174 E.01584
G1 X203.578 Y7.665 E.01584
G1 X203.638 Y8.345 E.02096
G1 X203.638 Y202.213 E5.95704
G1 X203.588 Y202.737 E.01618
M73 P7 R23
G1 X203.442 Y203.231 E.01581
G1 X203.177 Y203.729 E.01734
G1 X202.849 Y204.126 E.01581
G1 X202.452 Y204.454 E.01582
G1 X202 Y204.699 E.0158
G1 X201.46 Y204.864 E.01736
G1 X200.937 Y204.914 E.01613
G1 X6.959 Y204.914 E5.9604
G1 X6.435 Y204.864 E.01616
M73 P8 R23
G1 X5.941 Y204.718 E.01585
G1 X5.485 Y204.48 E.0158
G1 X5.047 Y204.126 E.01731
G1 X4.692 Y203.688 E.01731
G1 X4.455 Y203.232 E.0158
G1 X4.308 Y202.737 E.01585
G1 X4.258 Y202.213 E.01616
G1 X4.258 Y8.235 E5.9604
G1 X4.308 Y7.714 E.01608
M73 P9 R23
G1 X4.499 Y7.125 E.01904
G1 E-2.8 F3600
;WIPE_START
G1 F900
G1 X4.8 Y6.608 E-.7177
G1 X5.079 Y6.318 E-.4823
;WIPE_END
G1 Z.6 F9000
G1 X110.791 Y97.975 Z.6
G1 Z.2
G1 E4 F2400
;TYPE:Inner wall
G1 F900
G1 X110.761 Y97.894 E.00263
G1 X110.761 Y20.103 E2.39032
G1 X110.834 Y19.826 E.00881
G1 X111.035 Y19.618 E.00888
G1 X111.274 Y19.537 E.00776
G1 X189.07 Y19.537 E2.39043
G1 X189.344 Y19.608 E.00871
M73 P10 R23
G1 X189.536 Y19.782 E.00795
G1 X189.635 Y20.053 E.00885
G1 X189.635 Y97.846 E2.39036
G1 X189.582 Y98.085 E.00754
G1 X189.409 Y98.298 E.00843
G1 X189.152 Y98.411 E.00863
G1 X111.327 Y98.411 E2.39135
G1 X111.074 Y98.352 E.00799
G1 X110.863 Y98.17 E.00854
G1 X110.805 Y98.012 E.00518
G1 X111.138 Y97.846 F9000
;TYPE:Outer wall
G1 F900
G1 X111.138 Y20.103 E2.38882
G1 X111.199 Y19.964 E.00467
M73 P11 R22
G1 X111.327 Y19.914 E.0042
G1 X189.07 Y19.914 E2.38882
G1 X189.214 Y19.982 E.00491
G1 X189.258 Y20.103 E.00395
G1 X189.258 Y97.846 E2.38882
G1 X189.196 Y97.986 E.00471
G1 X189.07 Y98.034 E.00416
G1 X111.327 Y98.034 E2.38882
G1 X111.179 Y97.964 E.00502
M73 P12 R22
G1 X111.151 Y97.883 E.00261
G1 E-2.8 F3600
;WIPE_START
G1 F900
G1 X111.151 Y96.883 E-1.2
;WIPE_END
G1 Z.6 F9000
G1 X96.654 Y112.057 Z.6
G1 Z.2
G1 E4 F2400
;TYPE:Inner wall
G1 F900
G1 X96.822 Y112.097 E.00532
G1 X96.923 Y112.161 E.00366
G1 X97.095 Y112.393 E.00886
G1 X97.135 Y112.603 E.00657
G1 X97.135 Y190.346 E2.38882
G1 X97.062 Y190.623 E.00881
G1 X96.861 Y190.83 E.00888
G1 X96.622 Y190.911 E.00776
G1 X18.827 Y190.911 E2.39043
G1 X18.552 Y190.84 E.00871
G1 X18.361 Y190.666 E.00795
G1 X18.261 Y190.396 E.00885
G1 X18.261 Y112.603 E2.39036
G1 X18.314 Y112.363 E.00754
M73 P13 R22
G1 X18.487 Y112.15 E.00843
G1 X18.744 Y112.037 E.00863
G1 X96.57 Y112.037 E2.39135
G1 X96.615 Y112.048 E.00143
G1 X96.57 Y112.414 F9000
;TYPE:Outer wall
G1 F900
G1 X96.687 Y112.456 E.00384
G1 X96.758 Y112.603 E.00502
G1 X96.758 Y190.346 E2.38882
G1 X96.697 Y190.485 E.00467
G1 X96.57 Y190.534 E.0042
G1 X18.827 Y190.534 E2.38882
G1 X18.682 Y190.467 E.00491
M73 P14 R22
G1 X18.638 Y190.346 E.00395
G1 X18.638 Y112.603 E2.38882
G1 X18.7 Y112.463 E.00471
G1 X18.827 Y112.414 E.00416
G1 X96.53 Y112.414 E2.38759
G1 E-2.8 F3600
;WIPE_START
G1 F900
G1 X96.687 Y112.456 E-.19572
G1 X96.758 Y112.603 E-.19602
G1 X96.758 Y113.276 E-.80827
;WIPE_END
G1 Z.6 F9000
G1 X18.285 Y20.011 Z.6
G1 Z.2
M73 P14 R21
G1 E4 F2400
;TYPE:Inner wall
G1 F900
G1 X18.332 Y19.828 E.00581
G1 X18.392 Y19.74 E.00328
G1 X18.602 Y19.584 E.00804
G1 X18.827 Y19.537 E.00705
G1 X96.57 Y19.537 E2.38882
G1 X96.809 Y19.59 E.00754
M73 P15 R21
G1 X97.022 Y19.763 E.00843
G1 X97.135 Y20.021 E.00863
G1 X97.135 Y97.846 E2.39135
G1 X97.075 Y98.099 E.00799
G1 X96.894 Y98.309 E.00854
G1 X96.618 Y98.411 E.00903
G1 X18.827 Y98.411 E2.39032
G1 X18.549 Y98.339 E.00881
G1 X18.342 Y98.137 E.00888
G1 X18.261 Y97.898 E.00776
G1 X18.261 Y20.103 E2.39043
G1 X18.275 Y20.05 E.00167
M73 P16 R21
G1 X18.638 Y20.103 F9000
;TYPE:Outer wall
G1 F900
G1 X18.682 Y19.982 E.00395
G1 X18.827 Y19.914 E.00491
G1 X96.57 Y19.914 E2.38882
G1 X96.709 Y19.976 E.00471
G1 X96.758 Y20.103 E.00416
G1 X96.758 Y97.846 E2.38882
G1 X96.687 Y97.993 E.00502
G1 X96.57 Y98.034 E.00384
G1 X18.827 Y98.034 E2.38882
G1 X18.688 Y97.973 E.00467
M73 P17 R21
G1 X18.638 Y97.846 E.0042
G1 X18.638 Y20.143 E2.38759
G1 E-2.8 F3600
;WIPE_START
G1 F900
G1 X18.682 Y19.982 E-.19998
G1 X18.827 Y19.914 E-.19179
G1 X19.5 Y19.914 E-.80823
;WIPE_END
G1 Z.6 F9000
G1 X110.761 Y190.346 Z.6
G1 Z.2
G1 E4 F2400
;TYPE:Inner wall
G1 F900
G1 X110.761 Y112.603 E2.38882
G1 X110.821 Y112.35 E.00799
M73 P18 R21
G1 X111.002 Y112.139 E.00854
G1 X111.278 Y112.037 E.00903
G1 X189.07 Y112.037 E2.39032
G1 X189.347 Y112.11 E.00881
G1 X189.554 Y112.311 E.00888
G1 X189.635 Y112.55 E.00776
G1 X189.635 Y190.346 E2.39043
G1 X189.564 Y190.62 E.00871
M73 P18 R20
G1 X189.469 Y190.746 E.00483
G1 X189.241 Y190.885 E.00822
G1 X189.07 Y190.911 E.00534
G1 X111.327 Y190.911 E2.38882
G1 X111.087 Y190.858 E.00754
M73 P19 R20
G1 X110.874 Y190.685 E.00843
G1 X110.761 Y190.428 E.00863
G1 X110.761 Y190.386 E.0013
G1 X111.138 Y190.346 F9000
;TYPE:Outer wall
G1 F900
G1 X111.138 Y112.603 E2.38882
G1 X111.209 Y112.456 E.00502
G1 X111.327 Y112.414 E.00384
G1 X189.07 Y112.414 E2.38882
G1 X189.209 Y112.475 E.00467
G1 X189.258 Y112.603 E.0042
G1 X189.258 Y190.346 E2.38882
G1 X189.203 Y190.479 E.00443
M73 P20 R20
G1 X189.07 Y190.534 E.00443
G1 X111.327 Y190.534 E2.38882
G1 X111.187 Y190.472 E.00471
G1 X111.152 Y190.383 E.00293
G1 E-2.8 F3600
;WIPE_START
G1 F900
G1 X111.152 Y189.383 E-1.2
;WIPE_END
G1 Z.6 F9000
G1 X203.132 Y8.075
G1 Z.6
G1 Z.2
G1 E4 F2400
;TYPE:Bottom surface
;WIDTH:0.42017
G1 F2100
G1 X201.29 Y6.233 E.08006
G1 X200.95 Y6.195 E.01053
G1 X200.718 Y6.195 E.00713
G1 X202.978 Y8.455 E.09825
G1 X202.978 Y8.988 E.0164
G1 X200.184 Y6.195 E.12144
G1 X199.651 Y6.195 E.0164
G1 X202.978 Y9.522 E.14464
G1 X202.978 Y10.055 E.0164
G1 X199.117 Y6.195 E.16783
G1 X198.584 Y6.195 E.0164
G1 X202.978 Y10.589 E.19103
G1 X202.978 Y11.122 E.0164
G1 X198.05 Y6.195 E.21422
G1 X197.517 Y6.195 E.0164
G1 X202.978 Y11.656 E.23741
G1 X202.978 Y12.189 E.0164
G1 X196.983 Y6.195 E.26061
G1 X196.45 Y6.195 E.0164
G1 X202.978 Y12.723 E.2838
G1 X202.978 Y13.256 E.0164
G1 X195.916 Y6.195 E.307
G1 X195.383 Y6.195 E.0164
G1 X202.978 Y13.79 E.33019
G1 X202.978 Y14.323 E.0164
G1 X194.849 Y6.195 E.35339
G1 X194.316 Y6.195 E.0164
G1 X202.978 Y14.857 E.37658
G1 X202.978 Y15.39 E.0164
G1 X193.782 Y6.195 E.39977
G1 X193.249 Y6.195 E.0164
G1 X202.978 Y15.924 E.42297
G1 X202.978 Y16.457 E.0164
G1 X192.715 Y6.195 E.44616
G1 X192.182 Y6.195 E.0164
G1 X202.978 Y16.991 E.46936
G1 X202.978 Y17.524 E.0164
G1 X191.648 Y6.195 E.49255
G1 X191.115 Y6.195 E.0164
G1 X202.978 Y18.058 E.51575
G1 X202.978 Y18.591 E.0164
M73 P21 R20
G1 X190.581 Y6.195 E.53894
G1 X190.048 Y6.195 E.0164
G1 X202.978 Y19.125 E.56213
G1 X202.978 Y19.658 E.0164
G1 X189.514 Y6.195 E.58533
G1 X188.98 Y6.195 E.0164
G1 X202.978 Y20.192 E.60852
G1 X202.978 Y20.725 E.0164
G1 X188.447 Y6.195 E.63172
G1 X187.913 Y6.195 E.0164
G1 X202.978 Y21.259 E.65491
G1 X202.978 Y21.792 E.0164
G1 X187.38 Y6.195 E.67811
G1 X186.846 Y6.195 E.0164
G1 X202.978 Y22.326 E.7013
G1 X202.978 Y22.859 E.0164
G1 X186.313 Y6.195 E.72449
G1 X185.779 Y6.195 E.0164
G1 X202.978 Y23.393 E.74769
G1 X202.978 Y23.926 E.0164
G1 X185.246 Y6.195 E.77088
G1 X184.712 Y6.195 E.0164
G1 X202.978 Y24.46 E.79408
G1 X202.978 Y24.993 E.0164
G1 X184.179 Y6.195 E.81727
G1 X183.645 Y6.195 E.0164
G1 X202.978 Y25.527 E.84047
G1 X202.978 Y26.06 E.0164
G1 X183.112 Y6.195 E.86366
G1 X182.578 Y6.195 E.0164
G1 X202.978 Y26.594 E.88685
G1 X202.978 Y27.128 E.0164
G1 X182.045 Y6.195 E.91005
G1 X181.511 Y6.195 E.0164
G1 X202.978 Y27.661 E.93324
G1 X202.978 Y28.195 E.0164
G1 X180.978 Y6.195 E.95644
G1 X180.444 Y6.195 E.0164
G1 X202.978 Y28.728 E.97963
G1 X202.978 Y29.262 E.0164
M73 P22 R20
G1 X179.911 Y6.195 E1.00283
G1 X179.377 Y6.195 E.0164
G1 X202.978 Y29.795 E1.02602
G1 X202.978 Y30.329 E.0164
G1 X178.844 Y6.195 E1.04921
G1 X178.31 Y6.195 E.0164
G1 X202.978 Y30.862 E1.07241
G1 X202.978 Y31.396 E.0164
G1 X177.777 Y6.195 E1.0956
G1 X177.243 Y6.195 E.0164
G1 X202.978 Y31.929 E1.1188
G1 X202.978 Y32.463 E.0164
G1 X176.71 Y6.195 E1.14199
G1 X176.176 Y6.195 E.0164
G1 X202.978 Y32.996 E1.16519
G1 X202.978 Y33.53 E.0164
G1 X189.918 Y20.47 E.56777
G1 X189.918 Y21.003 E.0164
M73 P22 R19
G1 X202.978 Y34.063 E.56777
G1 X202.978 Y34.597 E.0164
G1 X189.918 Y21.537 E.56777
G1 X189.918 Y22.07 E.0164
G1 X202.978 Y35.13 E.56777
G1 X202.978 Y35.664 E.0164
G1 X189.918 Y22.604 E.56777
G1 X189.918 Y23.137 E.0164
G1 X202.978 Y36.197 E.56777
G1 X202.978 Y36.731 E.0164
G1 X189.918 Y23.671 E.56777
G1 X189.918 Y24.204 E.0164
G1 X202.978 Y37.264 E.56777
G1 X202.978 Y37.798 E.0164
G1 X189.918 Y24.738 E.56777
G1 X189.918 Y25.271 E.0164
G1 X202.978 Y38.331 E.56777
G1 X202.978 Y38.865 E.0164
G1 X189.918 Y25.805 E.56777
G1 X189.918 Y26.338 E.0164
M73 P23 R19
G1 X202.978 Y39.398 E.56777
G1 X202.978 Y39.932 E.0164
G1 X189.918 Y26.872 E.56777
G1 X189.918 Y27.406 E.0164
G1 X202.978 Y40.465 E.56777
G1 X202.978 Y40.999 E.0164
G1 X189.918 Y27.939 E.56777
G1 X189.918 Y28.473 E.0164
G1 X202.978 Y41.532 E.56777
G1 X202.978 Y42.066 E.0164
G1 X189.918 Y29.006 E.56777
G1 X189.918 Y29.54 E.0164
G1 X202.978 Y42.599 E.56777
G1 X202.978 Y43.133 E.0164
G1 X189.918 Y30.073 E.56777
G1 X189.918 Y30.607 E.0164
G1 X202.978 Y43.666 E.56777
G1 X202.978 Y44.2 E.0164
G1 X189.918 Y31.14 E.56777
G1 X189.918 Y31.674 E.0164
G1 X202.978 Y44.733 E.56777
G1 X202.978 Y45.267 E.0164
G1 X189.918 Y32.207 E.56777
G1 X189.918 Y32.741 E.0164
G1 X202.978 Y45.8 E.56777
G1 X202.978 Y46.334 E.0164
G1 X189.918 Y33.274 E.56777
G1 X189.918 Y33.808 E.0164
G1 X202.978 Y46.868 E.56777
G1 X202.978 Y47.401 E.0164
G1 X189.918 Y34.341 E.56777
G1 X189.918 Y34.875 E.0164
G1 X202.978 Y47.935 E.56777
G1 X202.978 Y48.468 E.0164
G1 X189.918 Y35.408 E.56777
G1 X189.918 Y35.942 E.0164
G1 X202.978 Y49.002 E.56777
G1 X202.978 Y49.535 E.0164
G1 X189.918 Y36.475 E.56777
G1 X189.918 Y37.009 E.0164
G1 X202.978 Y50.069 E.56777
G1 X202.978 Y50.602 E.0164
G1 X189.918 Y37.542 E.56777
G1 X189.918 Y38.076 E.0164
G1 X202.978 Y51.136 E.56777
G1 X202.978 Y51.669 E.0164
G1 X189.918 Y38.609 E.56777
G1 X189.918 Y39.143 E.0164
G1 X202.978 Y52.203 E.56777
G1 X202.978 Y52.736 E.0164
G1 X189.918 Y39.676 E.56777
G1 X189.918 Y40.21 E.0164
M73 P24 R19
G1 X202.978 Y53.27 E.56777
G1 X202.978 Y53.803 E.0164
G1 X189.918 Y40.743 E.56777
G1 X189.918 Y41.277 E.0164
G1 X202.978 Y54.337 E.56777
G1 X202.978 Y54.87 E.0164
G1 X189.918 Y41.81 E.56777
G1 X189.918 Y42.344 E.0164
G1 X202.978 Y55.404 E.56777
G1 X202.978 Y55.937 E.0164
G1 X189.918 Y42.877 E.56777
G1 X189.918 Y43.411 E.0164
G1 X202.978 Y56.471 E.56777
G1 X202.978 Y57.004 E.0164
G1 X189.918 Y43.944 E.56777
G1 X189.918 Y44.478 E.0164
G1 X202.978 Y57.538 E.56777
G1 X202.978 Y58.071 E.0164
G1 X189.918 Y45.011 E.56777
G1 X189.918 Y45.545 E.0164
G1 X202.978 Y58.605 E.56777
G1 X202.978 Y59.138 E.0164
G1 X189.918 Y46.078 E.56777
G1 X189.918 Y46.612 E.0164
G1 X202.978 Y59.672 E.56777
G1 X202.978 Y60.205 E.0164
G1 X189.918 Y47.145 E.56777
G1 X189.918 Y47.679 E.0164
G1 X202.978 Y60.739 E.56777
G1 X202.978 Y61.272 E.0164
G1 X189.918 Y48.212 E.56777
G1 X189.918 Y48.746 E.0164
G1 X202.978 Y61.806 E.56777
G1 X202.978 Y62.339 E.0164
G1 X189.918 Y49.279 E.56777
G1 X189.918 Y49.813 E.0164
G1 X202.978 Y62.873 E.56777
G1 X202.978 Y63.406 E.0164
G1 X189.918 Y50.347 E.56777
G1 X189.918 Y50.88 E.0164
G1 X202.978 Y63.94 E.56777
G1 X202.978 Y64.473 E.0164
G1 X189.918 Y51.414 E.56777
G1 X189.918 Y51.947 E.0164
G1 X202.978 Y65.007 E.56777
G1 X202.978 Y65.54 E.0164
G1 X189.918 Y52.481 E.56777
G1 X189.918 Y53.014 E.0164
G1 X202.978 Y66.074 E.56777
G1 X202.978 Y66.608 E.0164
M73 P25 R19
G1 X189.918 Y53.548 E.56777
G1 X189.918 Y54.081 E.0164
G1 X202.978 Y67.141 E.56777
G1 X202.978 Y67.675 E.0164
G1 X189.918 Y54.615 E.56777
G1 X189.918 Y55.148 E.0164
G1 X202.978 Y68.208 E.56777
G1 X202.978 Y68.742 E.0164
G1 X189.918 Y55.682 E.56777
G1 X189.918 Y56.215 E.0164
G1 X202.978 Y69.275 E.56777
G1 X202.978 Y69.809 E.0164
G1 X189.918 Y56.749 E.56777
G1 X189.918 Y57.282 E.0164
G1 X202.978 Y70.342 E.56777
G1 X202.978 Y70.876 E.0164
G1 X189.918 Y57.816 E.56777
G1 X189.918 Y58.349 E.0164
G1 X202.978 Y71.409 E.56777
G1 X202.978 Y71.943 E.0164
G1 X189.918 Y58.883 E.56777
G1 X189.918 Y59.416 E.0164
G1 X202.978 Y72.476 E.56777
G1 X202.978 Y73.01 E.0164
G1 X189.918 Y59.95 E.56777
G1 X189.918 Y60.483 E.0164
G1 X202.978 Y73.543 E.56777
G1 X202.978 Y74.077 E.0164
G1 X189.918 Y61.017 E.56777
G1 X189.918 Y61.55 E.0164
G1 X202.978 Y74.61 E.56777
G1 X202.978 Y75.144 E.0164
G1 X189.918 Y62.084 E.56777
G1 X189.918 Y62.617 E.0164
G1 X202.978 Y75.677 E.56777
G1 X202.978 Y76.211 E.0164
G1 X189.918 Y63.151 E.56777
G1 X189.918 Y63.684 E.0164
G1 X202.978 Y76.744 E.56777
G1 X202.978 Y77.278 E.0164
G1 X189.918 Y64.218 E.56777
G1 X189.918 Y64.751 E.0164
G1 X202.978 Y77.811 E.56777
G1 X202.978 Y78.345 E.0164
G1 X189.918 Y65.285 E.56777
G1 X189.918 Y65.818 E.0164
G1 X202.978 Y78.878 E.56777
G1 X202.978 Y79.412 E.0164
G1 X189.918 Y66.352 E.56777
G1 X189.918 Y66.885 E.0164
G1 X202.978 Y79.945 E.56777
G1 X202.978 Y80.479 E.0164
M73 P26 R19
G1 X189.918 Y67.419 E.56777
G1 X189.918 Y67.952 E.0164
G1 X202.978 Y81.012 E.56777
G1 X202.978 Y81.546 E.0164
G1 X189.918 Y68.486 E.56777
G1 X189.918 Y69.019 E.0164
G1 X202.978 Y82.079 E.56777
G1 X202.978 Y82.613 E.0164
G1 X189.918 Y69.553 E.56777
G1 X189.918 Y70.086 E.0164
G1 X202.978 Y83.146 E.56777
G1 X202.978 Y83.68 E.0164
